webroot/images/soc_fb.svg

<svg width="10" height="16" xmlns="http://www.w3.org/2000/svg"><path d="M6 0C4.301 0 3 1.3 3 3v3H0v3h3v7h3V9h3l1-3H6V4c0-.34.66-1 1-1h2V0H6z" fill="#FFF" fill-rule="evenodd"/></svg>

<?xml version="1.0" encoding="UTF-8"?>
<svg width="10px" height="16px" viewBox="0 0 10 16" version="1.1" xmlns="http://www.w3.org/2000/svg" xmlns:xlink="http://www.w3.org/1999/xlink">
    <!-- Generator: Sketch 48.2 (47327) - http://www.bohemiancoding.com/sketch -->
    <title>soc_fb</title>
    <desc>Created with Sketch.</desc>
    <defs></defs>
    <g id="Chia_landingpage_v2" stroke="none" stroke-width="1" fill="none" fill-rule="evenodd" transform="translate(-641.000000, -2541.000000)">
        <g id="social-logos" transform="translate(641.000000, 2540.000000)" fill="#FFFFFF">
            <g id="Group" transform="translate(0.000000, 1.000000)">
                <path d="M6,0 C4.301,0 3,1.3 3,3 L3,6 L0,6 L0,9 L3,9 L3,16 L6,16 L6,9 L9,9 L10,6 L6,6 L6,4 C6,3.66 6.66,3 7,3 L9,3 L9,0 L6,0 Z" id="soc_fb"></path>
            </g>
        </g>
    </g>
</svg>
